lib/logo_updates/nrk-logo-nrk-super-title-below.svg

<svg width="156" height="107" viewBox="0 0 156 107" fill="none" xmlns="http://www.w3.org/2000/svg">
<path d="M77.6575 91.6628C77.9009 92.3037 78.0172 92.9857 77.9997 93.6708C78.0273 94.5958 77.8045 95.5112 77.3546 96.3207C76.9213 97.0544 76.3149 97.6716 75.5879 98.1187C74.7745 98.6113 73.8802 98.9571 72.9462 99.1403C71.8712 99.3614 70.7758 99.4693 69.6781 99.4623C69.1717 99.4623 68.6716 99.4498 68.1778 99.4247C67.6733 99.398 67.1715 99.3345 66.6763 99.2349C66.1683 99.133 65.6362 99.0064 65.0801 98.8552C64.5241 98.704 63.9037 98.5142 63.2189 98.2857L63.0662 94.8408C63.6495 95.0432 64.2388 95.2331 64.8341 95.4102C65.4293 95.5874 66.0056 95.7325 66.5629 95.8456C67.1199 95.9588 67.6577 96.048 68.1781 96.1097C68.6505 96.1705 69.1262 96.2022 69.6025 96.2046C70.2982 96.2086 70.9923 96.139 71.6733 95.9971C72.2456 95.8928 72.7819 95.6451 73.2317 95.2774C73.4295 95.0993 73.585 94.8795 73.6868 94.634C73.7886 94.3885 73.8341 94.1234 73.82 93.8581C73.8215 93.5876 73.7561 93.321 73.6295 93.0817C73.4961 92.8346 73.315 92.6161 73.0967 92.4388C72.8515 92.2378 72.5836 92.0659 72.2985 91.9266C71.9954 91.7756 71.6788 91.6368 71.3488 91.5103C71.0948 91.4347 70.836 91.3521 70.5696 91.2648C70.3032 91.1775 70.0254 91.0886 69.7336 90.9994C69.4418 90.9101 69.1516 90.8295 68.8598 90.7526C68.568 90.6757 68.2778 90.589 67.986 90.4884C67.6942 90.3878 67.4101 90.2733 67.1313 90.1474C66.6277 89.9473 66.1444 89.7001 65.6879 89.4089C65.2444 89.1313 64.8469 88.7866 64.5096 88.3874C64.166 87.9716 63.9019 87.4966 63.7304 86.9858C63.5301 86.3818 63.4334 85.7484 63.4446 85.1123C63.4241 84.2208 63.6202 83.3376 64.0162 82.5379C64.3978 81.804 64.96 81.1785 65.6501 80.7198C66.4271 80.2114 67.2894 79.8462 68.1959 79.6416C69.2539 79.3935 70.3379 79.2727 71.4247 79.2818C71.9058 79.2818 72.3936 79.3007 72.8881 79.3385C73.379 79.3756 73.8675 79.439 74.3515 79.5283C74.8396 79.6182 75.3216 79.7379 75.7949 79.8867C76.2885 80.0437 76.7707 80.234 77.2383 80.4562L76.9354 83.7879C76.5738 83.6082 76.1989 83.4563 75.814 83.3336C75.4213 83.2071 75.0223 83.0934 74.617 82.9926C74.2115 82.892 73.8127 82.8088 73.4199 82.7458C73.0272 82.6828 72.6598 82.6389 72.3175 82.6136C71.9753 82.5882 71.666 82.5759 71.3869 82.5759C70.8385 82.5703 70.291 82.6208 69.753 82.7268C69.322 82.8106 68.9058 82.9573 68.5179 83.1622C68.2065 83.3238 67.9444 83.5658 67.759 83.8629C67.5914 84.1499 67.5058 84.4772 67.5117 84.8092C67.504 85.1354 67.5898 85.4571 67.759 85.7365C67.9227 86.0013 68.1352 86.2327 68.3855 86.4186C68.6578 86.6192 68.9507 86.7905 69.2593 86.9295C69.5801 87.0881 69.9103 87.2271 70.248 87.3459C70.6015 87.4724 70.9749 87.5861 71.3682 87.6869C71.7615 87.7877 72.1542 87.9076 72.5465 88.0466C72.9391 88.185 73.3255 88.3176 73.7057 88.4443C74.2746 88.6407 74.8272 88.8809 75.3587 89.1628C75.868 89.4342 76.3299 89.786 76.7262 90.2046C77.1242 90.6293 77.4399 91.1237 77.6575 91.6628ZM94.1186 79.9253L98.4498 79.2825L98.412 99.083H95.0305L94.4272 96.6232C94.332 96.7124 94.2367 96.802 94.1393 96.8874C93.5419 97.4261 92.8853 97.8958 92.1821 98.2876C91.5047 98.6639 90.7838 98.9567 90.0354 99.1596C89.2479 99.3659 88.4365 99.4674 87.6223 99.4614C86.3631 99.4982 85.115 99.2182 83.9931 98.6474C82.9864 98.0997 82.1912 97.2339 81.7327 96.1863C81.2247 95.0895 80.9714 93.6824 80.9726 91.9649V79.926L85.3038 79.2831V91.1708C85.279 92.0168 85.421 92.8594 85.7217 93.6509C85.9665 94.2829 86.4227 94.8113 87.0133 95.147C87.7181 95.5032 88.5029 95.6726 89.2924 95.639C89.7707 95.6392 90.248 95.5949 90.718 95.5067C91.1819 95.4195 91.6389 95.2993 92.0856 95.147C92.542 94.99 92.9864 94.8003 93.4153 94.5794C93.6452 94.4611 93.8789 94.333 94.1186 94.1957V79.9253ZM117.875 80.4388C116.516 79.6115 114.945 79.1971 113.353 79.2461C112.39 79.25 111.433 79.3776 110.503 79.6257C109.508 79.8912 108.551 80.2793 107.653 80.7808C107.487 80.8726 107.323 80.9757 107.159 81.0779V79.285L102.828 79.9671V107H107.159V98.4923C107.85 98.7828 108.57 99.0008 109.306 99.1428C110.214 99.3142 111.137 99.3964 112.061 99.3883C113.778 99.4155 115.47 98.9846 116.963 98.1402C118.433 97.2784 119.625 96.0175 120.402 94.5051C121.25 92.9148 121.675 90.9838 121.675 88.7123C121.709 87.0153 121.379 85.3306 120.706 83.7712C120.112 82.4072 119.127 81.2477 117.875 80.4388ZM116.506 93.0083C116.066 93.9867 115.319 94.7969 114.379 95.3178C113.324 95.8625 112.147 96.1294 110.959 96.093C110.413 96.0944 109.866 96.0565 109.325 95.9797C108.757 95.8958 108.198 95.7627 107.653 95.582C107.494 95.5304 107.329 95.4751 107.16 95.4159V83.6756L107.197 83.6579C107.729 83.4177 108.229 83.2155 108.699 83.0514C109.138 82.8959 109.589 82.7756 110.047 82.6917C110.461 82.6177 110.881 82.5798 111.301 82.5784C112.44 82.5381 113.571 82.7857 114.588 83.2982C115.473 83.7905 116.168 84.5632 116.563 85.4938C117.045 86.6832 117.273 87.9601 117.23 89.2422C117.268 90.5354 117.021 91.8207 116.506 93.0083ZM138.19 90.2087C138.941 89.9881 139.643 89.6286 140.261 89.1492C140.789 88.7277 141.212 88.1898 141.496 87.5778C141.777 86.9593 141.919 86.2875 141.914 85.6087C141.91 84.8111 141.735 84.0235 141.4 83.2991C141.045 82.5237 140.527 81.8333 139.881 81.2743C139.141 80.6433 138.282 80.1667 137.354 79.8728C136.211 79.5134 135.018 79.3408 133.819 79.3619C131.742 79.3619 129.982 79.7972 128.539 80.6679C127.1 81.5324 125.96 82.8137 125.27 84.3406C124.503 86.0744 124.127 87.9547 124.168 89.849C124.168 91.9453 124.554 93.7122 125.327 95.1498C126.102 96.591 127.321 97.7459 128.804 98.4446C130.35 99.202 132.25 99.5807 134.504 99.5807C135.344 99.586 136.182 99.5287 137.013 99.4095C137.75 99.3022 138.475 99.1249 139.178 98.8799C139.863 98.6409 140.559 98.357 141.268 98.0282L141.535 94.8863C140.549 95.2712 139.54 95.5935 138.513 95.8513C137.363 96.1281 136.182 96.2617 134.999 96.2489C134.05 96.2629 133.104 96.1482 132.187 95.9079C131.409 95.724 130.698 95.3297 130.132 94.7683C129.565 94.207 129.165 93.5006 128.976 92.7271C128.82 92.1851 128.715 91.6299 128.661 91.0686L135.265 90.7206C136.257 90.6663 137.239 90.494 138.19 90.2087ZM128.273 88.2561C128.322 87.3331 128.506 86.4223 128.818 85.552C129.132 84.6333 129.731 83.8376 130.528 83.2798C131.352 82.7666 132.312 82.5098 133.283 82.5424C134.071 82.5099 134.854 82.673 135.563 83.0169C136.096 83.2873 136.544 83.7002 136.856 84.2097C137.121 84.6436 137.265 85.14 137.273 85.6479C137.283 86.0394 137.184 86.426 136.988 86.7653C136.759 87.1114 136.427 87.3765 136.038 87.5227C135.472 87.7377 134.875 87.8592 134.27 87.8824L128.273 88.2561ZM156 79.3755L155.468 83.276C154.981 83.25 154.492 83.2564 154.005 83.295C153.563 83.3285 153.125 83.3979 152.694 83.5026C152.288 83.6049 151.888 83.7317 151.497 83.8822C151.096 84.0387 150.709 84.2285 150.339 84.4498C150.06 84.6172 149.781 84.7978 149.503 84.9781V99.0653H145.171V79.906L149.503 79.2632V82.3054C149.573 82.2247 149.641 82.1431 149.711 82.065C150.238 81.4751 150.83 80.9478 151.478 80.4935C152.107 80.0542 152.807 79.7272 153.549 79.5273C154.349 79.3225 155.181 79.2705 156 79.3755Z" fill="white"/>
<path d="M0 99.1827V79.6163H6.47381V99.1827H0ZM15.2815 82.7304L19.0046 99.1827H11.9196L7.47401 79.6163H11.4477C12.3589 79.6046 13.2431 79.9231 13.9344 80.512C14.6268 81.0762 15.1025 81.8595 15.2815 82.7304ZM19.9771 99.1827V79.6163H26.4509V99.1827H19.9771ZM31.3406 87.0571C30.643 87.0639 29.9566 86.8828 29.3544 86.5334C28.7603 86.1929 28.2668 85.7034 27.9235 85.1142C27.5708 84.5169 27.3882 83.836 27.3951 83.1438C27.3872 82.4559 27.5699 81.7791 27.9235 81.1872C28.2705 80.6043 28.7634 80.1202 29.3544 79.7817C29.9567 79.4327 30.643 79.2517 31.3406 79.258C32.034 79.2506 32.7163 79.4318 33.3133 79.7817C33.8984 80.1232 34.3861 80.6069 34.7303 81.1872C35.0835 81.7792 35.2662 82.456 35.2586 83.1438C35.2651 83.8359 35.0826 84.5167 34.7303 85.1142C34.3897 85.7008 33.9014 86.1899 33.3133 86.5334C32.7162 86.8841 32.0335 87.0653 31.3397 87.0571H31.3406ZM36.2589 99.1827V79.6163H42.7332V99.1827H36.2589ZM50.9292 90.3089C50.9474 90.3279 51.0863 90.5529 51.3459 90.9841C51.6056 91.4152 51.9436 91.9664 52.3601 92.6376C52.7768 93.3085 53.2166 94.0204 53.6794 94.7733C54.1422 95.5263 54.5776 96.2383 54.9858 96.9092C55.3924 97.5801 55.8554 98.3379 56.375 99.1827H49.2621C48.8172 98.4662 48.4142 97.8186 48.053 97.2399C47.6918 96.6611 47.3078 96.0364 46.9009 95.3659C46.4931 94.6959 46.0899 94.0437 45.6913 93.4092C45.2928 92.7748 44.9503 92.2191 44.6638 91.742C44.376 91.2646 44.1768 90.9431 44.0659 90.7774C43.7911 90.3663 43.6285 89.8916 43.594 89.3995C43.6216 88.9272 43.7748 88.4707 44.0381 88.0763C44.1493 87.8926 44.353 87.5664 44.6494 87.0979C44.9458 86.6294 45.2931 86.0737 45.6913 85.4307C46.0896 84.7877 46.4928 84.1309 46.9009 83.4603C47.309 82.7897 47.693 82.1604 48.053 81.5725C48.4148 80.9852 48.8178 80.333 49.2621 79.6159H56.375L50.8731 88.5172C50.7029 88.7815 50.6069 89.0861 50.5952 89.3995C50.6136 89.7285 50.7294 90.0449 50.9282 90.3089H50.9292Z" fill="white"/>
<path fill-rule="evenodd" clip-rule="evenodd" d="M78.5009 0C59.6501 0 44.2666 15.3289 44.2666 34.1117C44.2666 52.8593 59.6495 68.2247 78.5012 68.2247C97.3151 68.2247 112.736 52.8593 112.736 34.1117C112.735 15.3289 97.3148 0 78.5009 0ZM50.9804 34.1117C50.9804 49.2568 63.4123 61.7912 78.5009 61.7912C93.7361 61.7912 106.022 49.2568 106.021 34.1117C106.021 18.7837 93.7361 6.43314 78.5009 6.43314C63.4123 6.43314 50.9804 18.784 50.9804 34.1117ZM72.451 34.2224C72.4576 34.9137 72.3256 35.5994 72.0626 36.2391C71.7995 36.8788 71.4109 37.4597 70.9194 37.9477C70.4279 38.4357 69.8435 38.8208 69.2005 39.0806C68.5575 39.3403 67.8689 39.4694 67.1752 39.4603C65.7809 39.4603 64.4438 38.9084 63.458 37.9261C62.4721 36.9438 61.9183 35.6115 61.9183 34.2223C61.9183 32.8331 62.4721 31.5007 63.458 30.5184C64.4438 29.5361 65.7809 28.9842 67.1752 28.9842C67.869 28.9751 68.5576 29.1041 69.2007 29.3639C69.8437 29.6236 70.4282 30.0088 70.9197 30.4968C71.4112 30.9848 71.7999 31.5658 72.0629 32.2056C72.326 32.8454 72.4577 33.5311 72.451 34.2224ZM96.3914 31.7965L92.9255 34.5518C92.6667 34.7356 92.6667 34.9191 92.741 35.2136L93.884 39.4413C93.9587 39.6628 93.8475 39.6979 93.6996 39.5872L89.9726 37.1628C89.8771 37.091 89.7607 37.0522 89.6411 37.0522C89.5215 37.0522 89.4051 37.091 89.3096 37.1628L85.5465 39.6264C85.3988 39.7359 85.2877 39.6628 85.362 39.4426L86.505 35.2149C86.5564 35.1037 86.5698 34.9787 86.5432 34.8592C86.5165 34.7396 86.4512 34.6321 86.3574 34.553L82.8533 31.7221C82.7422 31.6127 82.7422 31.4655 82.9267 31.4655L87.3172 31.2817C87.418 31.285 87.5169 31.254 87.5977 31.1939C87.6785 31.1337 87.7363 31.048 87.7618 30.9508L89.4576 26.7231C89.5687 26.4665 89.7164 26.5016 89.7897 26.7231L91.2658 30.8043C91.2976 30.9518 91.383 31.0823 91.5057 31.1706C91.6284 31.2589 91.7796 31.2987 91.9301 31.2824L96.2829 31.4662C96.5407 31.4655 96.5769 31.6494 96.393 31.7965H96.3914Z" fill="white"/>
</svg>

<svg xmlns="http://www.w3.org/2000/svg" viewBox="0 0 156 107"><path fill="#fff" d="M77.657 91.663c.244.64.36 1.323.343 2.008a5.139 5.139 0 0 1-.645 2.65 5.238 5.238 0 0 1-1.767 1.798 8.115 8.115 0 0 1-2.642 1.021c-1.075.221-2.17.33-3.268.322-.506 0-1.006-.012-1.5-.037a10.403 10.403 0 0 1-1.502-.19 24.354 24.354 0 0 1-1.596-.38 34.751 34.751 0 0 1-1.861-.57l-.153-3.444c.584.202 1.173.392 1.768.57a20.026 20.026 0 0 0 3.344.699c.472.06.948.092 1.425.095a9.873 9.873 0 0 0 2.07-.208 3.436 3.436 0 0 0 1.559-.72 1.787 1.787 0 0 0 .588-1.419 1.64 1.64 0 0 0-.19-.776 2.135 2.135 0 0 0-.533-.643 4.094 4.094 0 0 0-.798-.512c-.304-.151-.62-.29-.95-.417a29.926 29.926 0 0 1-.78-.245 43.634 43.634 0 0 0-.835-.266c-.292-.089-.582-.17-.874-.246a12.248 12.248 0 0 1-.874-.265 9.974 9.974 0 0 1-.855-.34 8.564 8.564 0 0 1-1.443-.74 5.051 5.051 0 0 1-1.178-1.02 4.398 4.398 0 0 1-.78-1.402 5.637 5.637 0 0 1-.285-1.874 5.515 5.515 0 0 1 .571-2.574 4.895 4.895 0 0 1 1.634-1.818 7.777 7.777 0 0 1 2.546-1.078 13.642 13.642 0 0 1 3.229-.36c.48 0 .969.019 1.463.056.491.038.98.101 1.463.19a11.447 11.447 0 0 1 2.887.928l-.303 3.332a7.936 7.936 0 0 0-1.121-.454c-.393-.127-.792-.24-1.197-.341a14.54 14.54 0 0 0-1.197-.247 13.062 13.062 0 0 0-2.033-.17 8.028 8.028 0 0 0-1.634.15c-.431.085-.847.231-1.235.436a1.957 1.957 0 0 0-.759.7 1.813 1.813 0 0 0-.247.947c-.008.326.078.648.247.928.164.264.376.496.626.682.273.2.566.371.874.51.321.16.651.298.989.417.353.126.727.24 1.12.34.394.102.786.222 1.178.36.393.139.78.272 1.16.398.569.197 1.121.437 1.653.719.509.271.97.623 1.367 1.042.398.424.714.919.931 1.458ZM94.12 79.925l4.33-.642-.037 19.8H95.03l-.603-2.46c-.095.09-.19.179-.288.264a10.697 10.697 0 0 1-1.957 1.4 9.586 9.586 0 0 1-2.147.873 9.253 9.253 0 0 1-2.413.301 7.52 7.52 0 0 1-3.629-.814 5.156 5.156 0 0 1-2.26-2.46c-.508-1.097-.762-2.505-.76-4.222V79.926l4.33-.643v11.888a6.45 6.45 0 0 0 .419 2.48c.245.632.7 1.16 1.291 1.496.705.356 1.49.526 2.28.492.478 0 .955-.044 1.425-.132.464-.088.92-.208 1.368-.36.456-.157.9-.347 1.33-.568.23-.118.463-.246.703-.383v-14.27Zm23.756.514a8.21 8.21 0 0 0-4.522-1.193c-.963.004-1.92.132-2.85.38-.995.265-1.952.653-2.85 1.155-.166.092-.33.195-.494.297v-1.793l-4.331.682V107h4.331v-8.508c.691.29 1.411.509 2.147.65.908.172 1.831.254 2.755.246a9.646 9.646 0 0 0 4.902-1.248 8.96 8.96 0 0 0 3.439-3.635c.848-1.59 1.273-3.521 1.273-5.793a11.868 11.868 0 0 0-.969-4.94 7.565 7.565 0 0 0-2.831-3.333Zm-1.369 12.57a4.976 4.976 0 0 1-2.127 2.309 6.988 6.988 0 0 1-3.42.775 11.427 11.427 0 0 1-1.634-.113 9.914 9.914 0 0 1-1.672-.398 22.495 22.495 0 0 1-.493-.166v-11.74l.037-.018a18.45 18.45 0 0 1 1.502-.607c.439-.155.89-.275 1.348-.36a7.268 7.268 0 0 1 1.254-.113 6.773 6.773 0 0 1 3.287.72 4.545 4.545 0 0 1 1.975 2.196c.482 1.19.71 2.466.667 3.748a8.814 8.814 0 0 1-.724 3.766Zm21.684-2.8a6.254 6.254 0 0 0 2.071-1.06 4.36 4.36 0 0 0 1.235-1.571c.281-.619.423-1.29.418-1.97a5.568 5.568 0 0 0-.514-2.309 5.957 5.957 0 0 0-1.519-2.025 7.283 7.283 0 0 0-2.527-1.401 11.129 11.129 0 0 0-3.535-.511c-2.077 0-3.837.435-5.28 1.306a8.247 8.247 0 0 0-3.269 3.673 12.924 12.924 0 0 0-1.102 5.508c0 2.096.386 3.863 1.159 5.3a7.647 7.647 0 0 0 3.477 3.296c1.546.757 3.446 1.136 5.7 1.136.84.005 1.678-.052 2.509-.172a11.701 11.701 0 0 0 2.165-.53 22.918 22.918 0 0 0 2.09-.85l.267-3.143c-.986.385-1.995.708-3.022.965-1.15.277-2.331.41-3.514.398-.949.014-1.895-.1-2.812-.341a4.332 4.332 0 0 1-3.211-3.18 9.17 9.17 0 0 1-.315-1.66l6.604-.347a12.572 12.572 0 0 0 2.925-.512Zm-9.917-1.953a9.506 9.506 0 0 1 .545-2.704 4.584 4.584 0 0 1 1.71-2.272 4.903 4.903 0 0 1 2.755-.738 4.773 4.773 0 0 1 2.28.475c.533.27.981.683 1.293 1.193.265.434.409.93.417 1.438.01.391-.089.778-.285 1.117a1.97 1.97 0 0 1-.95.758 5.58 5.58 0 0 1-1.768.36l-5.997.373ZM156 79.376l-.532 3.9a11.06 11.06 0 0 0-1.463.019c-.442.034-.88.103-1.311.208-.406.102-.806.229-1.197.38a7.731 7.731 0 0 0-1.158.567 28.5 28.5 0 0 0-.836.528v14.087h-4.332V79.906l4.332-.643v3.042c.07-.08.138-.162.208-.24a10.29 10.29 0 0 1 1.767-1.572 6.626 6.626 0 0 1 2.071-.966 6.535 6.535 0 0 1 2.451-.151ZM0 99.183V79.616h6.474v19.567H0ZM15.281 82.73l3.724 16.453H11.92L7.474 79.616h3.974a3.76 3.76 0 0 1 2.486.896 3.867 3.867 0 0 1 1.348 2.218Zm4.696 16.453V79.616h6.474v19.567h-6.474Zm11.364-12.126a3.883 3.883 0 0 1-1.987-.524 3.9 3.9 0 0 1-1.43-1.419 3.8 3.8 0 0 1-.529-1.97 3.73 3.73 0 0 1 .529-1.957 3.948 3.948 0 0 1 1.43-1.405 3.892 3.892 0 0 1 1.987-.524 3.822 3.822 0 0 1 1.972.524 3.978 3.978 0 0 1 1.417 1.405c.354.592.536 1.269.529 1.957a3.808 3.808 0 0 1-.529 1.97 3.93 3.93 0 0 1-1.417 1.42c-.597.35-1.28.531-1.973.523Zm4.918 12.126V79.616h6.474v19.567H36.26Zm14.67-8.874c.018.019.157.244.417.675.26.431.598.982 1.014 1.654a541.7 541.7 0 0 1 2.626 4.271c.406.671.87 1.429 1.389 2.274h-7.113l-1.209-1.943a177.16 177.16 0 0 1-1.152-1.874c-.408-.67-.811-1.322-1.21-1.957a99.205 99.205 0 0 1-1.027-1.667 29.246 29.246 0 0 0-.598-.965 2.836 2.836 0 0 1-.472-1.377c.028-.473.18-.93.444-1.324.111-.183.315-.51.611-.978a292.677 292.677 0 0 0 2.252-3.638c.408-.67.792-1.3 1.152-1.887.362-.588.765-1.24 1.21-1.957h7.112l-5.502 8.901a1.75 1.75 0 0 0-.278.883c.019.328.134.645.333.909h.001Z"/><path fill="#fff" fill-rule="evenodd" d="M78.5 0C59.65 0 44.268 15.329 44.268 34.112c0 18.747 15.383 34.113 34.234 34.113 18.814 0 34.235-15.366 34.235-34.113C112.735 15.329 97.315 0 78.501 0ZM50.98 34.112c0 15.145 12.432 27.68 27.52 27.68 15.236 0 27.522-12.535 27.521-27.68 0-15.328-12.285-27.679-27.52-27.679-15.089 0-27.52 12.351-27.52 27.679Zm21.471.11a5.174 5.174 0 0 1-1.532 3.726 5.209 5.209 0 0 1-3.744 1.512 5.266 5.266 0 0 1-3.717-1.534 5.228 5.228 0 0 1 0-7.408 5.266 5.266 0 0 1 3.717-1.534 5.225 5.225 0 0 1 3.745 1.513 5.188 5.188 0 0 1 1.531 3.725Zm23.94-2.425-3.466 2.755c-.258.184-.258.367-.184.662l1.143 4.227c.075.222-.037.257-.184.146l-3.727-2.424a.552.552 0 0 0-.663 0l-3.764 2.463c-.147.11-.258.037-.184-.183l1.143-4.228a.559.559 0 0 0-.148-.662l-3.504-2.83c-.11-.11-.11-.258.074-.258l4.39-.183a.446.446 0 0 0 .445-.331l1.696-4.228c.11-.256.258-.221.332 0l1.476 4.081a.61.61 0 0 0 .664.478l4.353.184c.258 0 .294.183.11.33h-.002Z" clip-rule="evenodd"/></svg>
